packages/command-cabin/src/assets/img/circle-3.svg

<svg
  width="240"
  height="240"
  viewBox="0 0 240 240"
  fill="none"
  xmlns="http://www.w3.org/2000/svg"
>
  <ellipse
    cx="120"
    cy="120"
    rx="80"
    ry="80"
    transform="rotate(90 120 120)"
    fill="#071C36"
  />
  <circle
    opacity="0.7"
    cx="120"
    cy="120"
    r="62.5"
    stroke="#11294A"
    stroke-width="10"
    stroke-dasharray="24 4"
  >
    <animateTransform
      attributeName="transform"
      from="0 120 120"
      to="360 120 120"
      type="rotate"
      dur="40s"
      repeatCount="indefinite"
    />
  </circle>
  <path
    d="M68.1882 59.1077C82.7539 46.7728 101.258 40.0671 120.345 40.2072C139.431 40.3473 157.835 47.3238 172.218 59.8712L167.497 65.2832C154.408 53.8651 137.661 47.5165 120.292 47.389C102.923 47.2616 86.0843 53.3637 72.8296 64.5884L68.1882 59.1077Z"
    fill="#11294A"
    fill-opacity="0.7"
  />
  <path
    d="M171.858 180.451C157.4 192.912 138.955 199.779 119.868 199.805C100.781 199.831 82.3168 193.015 67.8251 180.593L72.4991 175.14C85.6866 186.444 102.489 192.646 119.858 192.623C137.227 192.599 154.012 186.35 167.169 175.011L171.858 180.451Z"
    fill="#11294A"
    fill-opacity="0.7"
  />
</svg>

<svg fill="none" viewBox="0 0 240 240" xmlns="http://www.w3.org/2000/svg">
  <ellipse transform="rotate(90 120 120)" cx="120" cy="120" rx="80" ry="80" fill="#071C36" />
  <circle cx="120" cy="120" r="62.5" opacity=".7" stroke="#11294A" stroke-dasharray="24 4" stroke-width="10">
    <animateTransform attributeName="transform" dur="40s" from="0 120 120" repeatCount="indefinite" to="360 120 120"
      type="rotate" />
  </circle>
  <path
    d="m68.188 59.108c14.566-12.335 33.07-19.041 52.157-18.9 19.086 0.1401 37.49 7.1166 51.873 19.664l-4.721 5.412c-13.089-11.418-29.836-17.767-47.205-17.894-17.369-0.1274-34.208 5.9747-47.462 17.199l-4.6414-5.4807z"
    fill="#11294A" fill-opacity=".7" />
  <path
    d="m171.86 180.45c-14.458 12.461-32.903 19.328-51.99 19.354s-37.551-6.79-52.043-19.212l4.674-5.453c13.188 11.304 29.99 17.506 47.359 17.483 17.369-0.024 34.154-6.273 47.311-17.612l4.689 5.44z"
    fill="#11294A" fill-opacity=".7" />
</svg>
